X:575
T:Hector the Hero
C:James Scott Skinner
S:Various
Z:Nigel Gatherer
L:1/8
M:6/8
K:D
D | F>ED BAF | A3- A2 D | F>ED BAF | E3- E2
D | F>ED BAF | A2D d2 B | ADF  E2D | D3- D2 :|
F | B>cB dcB | A3- A2 F | BAF  ADF | E3- E2
F | B>cB dcB | ADE F<dB | ADF  E2D | D3- D2 :|]
<end>
<start>
